X:1
T: Doctor Haydn
C:Duncan McIntyre
R:Strathspey
Q: 128
K:F
M:4/4
L:1/16
|:F3G Af3 Ff3 Af3|FF3 A3F DG3 G3A|F3G A3B dcBA a3g|f3d dcBA GABc d4|
F3G ((3A2f2A2) ((3c2f2c2) ((3A2f2A2) |FF3 A3F DG3 G3A|FGAG F3^C DF3 D3B,|A,3F DCB,A, G,A,B,C D3E|
FF3 A3F c3F d3F|c2F2 A2F2 GABc d4|a3g f2c2 d2b2 B2d2|c2fc A2F2 G2G,2 Bd3|
FF3 A3F c3F d3F|c2F2 A2F2 GABc d4|c2fc A2c2 d2B,2 B2d2|A,2cB A2F2 G2G,2 EG3:|
